X: 3998
T: Blackthorn Stick, The
R: jig
M: 6/8
K: Gmajor
d|(3B/c/B/ A{A}G E2{A}G|D2D E/G/GG|G2 (3D/E/F/ GAB|c2c {A}BAG|B/c/d>B A2|
|:D|{F}GAB c2c|{A}BAG Bdd|{f}e>dc B (3A/B/A/ (3G/A/G/|E>GE D2D|{A}EGG G2:|

